X: 7
T: Poor But Happy At 53
R: reel
M: 4/4
L: 1/8
K: Gmin
|:GABc dG G2|e2 de dG G2|FGAB cF F2|cFdF c2 BA|
GABc d2 gf|gfdB c2 Bc|dcBd cA A2|BGAF G2 G2:|
|:gfdc d2 ga|bagf dc (3def |g3a b3g|a3f g2 ga|
(3bag af gfdc|dBcA BG G2|dcBd cA A2|BGAF G4:|


Tune 314	Setting 13083

